symbols/web/looks_two/materialsymbolssharp/looks_two_wght200gradN25fill1_24px.svg

<svg xmlns="http://www.w3.org/2000/svg" height="24" width="24"><path d="M9.55 16.425h4.9V15.5h-3.975v-3.025h3.975v-4.9h-4.9V8.5h3.975v3.05H9.55Zm-5.4 3.425V4.15h15.7v15.7Z"/></svg>

<svg xmlns="http://www.w3.org/2000/svg" height="24" width="24"><path d="M9.55 16.425H14.45V15.5H10.475V12.475H14.45V7.575H9.55V8.5H13.525V11.55H9.55ZM4.15 19.85V4.15H19.85V19.85Z"/></svg>
